X:1
T:If the Light Has Gone Out
T:If the Light Has Gone Out
T:Curtis J. Williams
T:Curtis J. Williams, 1917
T:Public Domain Courtesy of the Cyber Hymnal™
T:Public Domain Courtesy of the Cyber Hymnal™
C:Curtis J. Williams
Z:Public Domain
Z:Courtesy of the Cyber Hymnal™
%%score ( 1 2 ) ( 3 4 )
L:1/8
Q:1/4=95
M:4/4
K:Bb
V:1 treble 
V:2 treble 
V:3 bass 
V:4 bass 
V:1
 [B,D][CE] | [DF]2 [DB][Ec] [Fd]2 [=E^c][Fd] | B6 [DF][FB] | [Ec]2 [DB][Fd] [=Ec]2 [EA][EG] | %4
w: 1.~When the|sun of your life has gone|down, And the|clouds in the west turn to|
w: 2.~When you|come to the end of the|way, And life’s|sto- ry for you has been|
w: 3.~When be-|fore judg- ment’s bar you shall|stand, And the|deeds that have here had con-|
 (z2 [DF])[EG] x4 | [DF]2 [Fd][Ge] [Fd]2 [DB][DF] G6 [EG][Ge] | [Fd]2 [DG][Fd] [=Ec]2 [_EF][Ec] | %7
w: * gold,|End- less night then to you will have come,|If the light has gone out|
w: * told,|O how sad all to you will ap- pear,|If the light has gone out|
w: * trol,|Good and e- vil ap- pear, O what then,|If the light has gone out|
 B6 ||"^Refrain" [Fd][Ec] | [DB]2 [B,D][CE] [DF]2 [Fd][=E^c] | d6 [DB][Fd] | %11
w: in|your soul.|||
w: in|your soul.|O just think how in death|you will feel,|
w: in|your soul?|||
 [=Ec]2 [EB][EG] [EA]2 [EA][EB] | [Fc]6 [Fd][Ge] | [Fd]2 [DB][Ec] [DB]2 [B,D][CE] | G6 [EG][Ge] | %15
w: ||||
w: With the light grow- ing dim|in your soul;|O how lone- ly ’twill be!|O how still!|
w: ||||
 [Fd]2 [DG][Fd] [=Ec]2 [_EF][Ec] | B6 |] %17
w: ||
w: When the light has gone out|of|
w: ||
V:2
 x2 | x8 | (D2 E2 D2) x2 | x8 | (F4 CD E2) | x8 (E2 F2 E2) x2 | x8 | (D2 E2 D2) || x2 | x8 | %10
 (F2 GB F2) x2 | x8 | x8 | x8 | (E2 F2 E2) x2 | x8 | (D2 E2 D2) |] %17
V:3
 [B,,F,][B,,F,] | [B,,B,]2 [B,,F,][B,,F,] [B,,B,]2 [B,,B,][B,,B,] | (F,2 G,2 F,2) [B,,B,][D,B,] | %3
 [F,A,]2 [G,B,][G,B,] [C,G,]2 [C,C][C,B,] | (A,2 A,B, C2) [B,,B,][B,,B,] | %5
 [B,,B,]2 [B,,B,][B,,B,] [B,,B,]2 [B,,F,][B,,B,] ([E,B,]2 [D,=B,]2 [C,C]2) [E,C][C,C] | %6
 [F,A,]2 [G,B,][G,B,] [C,G,]2 [F,A,][F,A,] | (B,2 G,2 F,2) || [B,,B,][B,,F,] | %9
 [B,,F,]2 [B,,F,][B,,F,] [B,,B,]2 [B,,B,][B,,B,] | (B,2 B,F, B,2) [B,,F,][B,,B,] | %11
 [C,G,]2 [C,C][C,C] [C,C]2 [C,C][C,G,] | ([F,A,]2 [A,C][G,B,] [F,A,]2) [B,,B,][B,,B,] | %13
 [B,,B,]2 [B,,F,][B,,F,] [B,,F,]2 [B,,F,][B,,B,] | ([E,B,]2 [D,=B,]2 [C,C]2) [E,C][C,C] | %15
 [F,A,]2 [G,B,][G,B,] [C,G,]2 [F,A,][F,A,] | (B,2 G,2 F,2) |] %17
V:4
 x2 | x8 | B,,6 x2 | x8 | F,6 x2 | x16 | x8 | B,,6 || x2 | x8 | B,,6 x2 | x8 | x8 | x8 | x8 | x8 | %16
 B,,6 |] %17

